X: 208
T: Miss Wiseman's fancy
C: anon.
O: Ireland
B: Francis O'Neill: "The Dance Music of Ireland" (1907) no. 208
R: Double jig
Z: Transcribed by Frank Nordberg - http://www.musicaviva.com
F: http://www.musicaviva.com/abc/tunes/ireland/oneill-1001/oneill-1001-020
8.abc
m: Tn = (3n/o/n/
m: Tn2 = (3n/o/n/ o/n/
M: 6/8
L: 1/8
K: G
D|DGG GBG|AFD (3D/E/F/GA|Tfdf ecA|BGd AFD|DGG GBG|AFD (3D/E/F/GA|({g}f)ed
 ecA|({B}A)GG G2:|
|:(B/d/)|(g/a/g/f/g) GFG|(f/g/f/^e/f) FGA|fed (e/f/e)d|cAG FED|(g/a/g/f/g
) GFG|(f/g/f/^e/f) FGA|({g}f)ed ecA|({B}A)GG G2:|
|:(d/c/)|BGd BGd|AFD (3D/E/F/GA|(Tf2d) (Te2d)|cAG FDC|DGG BGd|AFD (3D/E/F
/GA|({g}f)ed ecA|({B}A)GG G2:|
W:
W:
W: From Musica Viva - http://www.musicaviva.com
W: the Internet center for free sheet music downloads.


